svgs/sharp-light/calendar-exclamation.svg

<svg xmlns="http://www.w3.org/2000/svg" viewBox="0 0 448 512"><!--! Font Awesome Pro 6.6.0 by @fontawesome - https://fontawesome.com License - https://fontawesome.com/license (Commercial License) Copyright 2024 Fonticons, Inc. --><path d="M128 0l0 16 0 48 192 0 0-48 0-16 32 0 0 16 0 48 64 0 32 0 0 32 0 64 0 32 0 288 0 32-32 0L32 512 0 512l0-32L0 192l0-32L0 96 0 64l32 0 64 0 0-48L96 0l32 0zM416 192L32 192l0 288 384 0 0-288zm0-96L32 96l0 64 384 0 0-64zM240 240l0 16 0 96 0 16-32 0 0-16 0-96 0-16 32 0zm0 160l0 32-32 0 0-32 32 0z"/></svg>

<svg xmlns="http://www.w3.org/2000/svg" viewBox="0 0 448 512"><!--! Font Awesome Pro 6.4.2 by @fontawesome - https://fontawesome.com License - https://fontawesome.com/license (Commercial License) Copyright 2023 Fonticons, Inc. --><path d="M128 0V16 64H320V16 0h32V16 64h64 32V96v64 32V480v32H416 32 0V480 192 160 96 64H32 96V16 0h32zM416 192H32V480H416V192zm0-96H32v64H416V96zM240 240v16 96 16H208V352 256 240h32zm0 160v32H208V400h32z"/></svg>
